images/footer_whatsapp.svg

<svg width="102" height="103" viewBox="0 0 102 103" fill="none" xmlns="http://www.w3.org/2000/svg">
<rect y="0.5" width="102" height="102" rx="50.9999" fill="#39CB59"/>
<g clip-path="url(#clip0_98_48)">
<path d="M51 29.0596C38.6117 29.0596 28.5601 39.1112 28.5601 51.4995C28.5601 56.4601 30.1657 61.029 32.881 64.7494L30.0221 73.2085L38.9381 70.428C42.4235 72.6471 46.5616 73.9395 51 73.9395C63.3883 73.9395 73.44 63.8879 73.44 51.4995C73.44 39.1112 63.3883 29.0596 51 29.0596ZM61.2736 63.5354C57.2007 65.1672 52.3446 63.5876 47.0316 59.5539C41.7186 55.5202 38.2201 49.8417 37.9851 45.6252C37.7501 41.4087 41.1834 39.2809 43.0501 39.294C44.9168 39.307 46.9663 45.2727 46.9924 46.1865C47.0185 47.1134 44.708 48.7582 44.6166 49.5414C44.5252 50.3247 47.7626 54.1887 49.1333 55.233C50.4909 56.2643 53.2975 58.2485 54.7465 58.0657C56.1825 57.8699 57.1354 54.985 58.0492 54.8022C58.963 54.6195 63.9497 57.0997 64.4457 57.7394C64.9418 58.3921 64.8896 62.0994 61.2736 63.5354Z" fill="white"/>
</g>
<defs>
<clipPath id="clip0_98_48">
<rect width="44.8799" height="44.8799" fill="white" transform="translate(28.5601 29.0596)"/>
</clipPath>
</defs>
</svg>

<svg width="102" height="103" fill="none" xmlns="http://www.w3.org/2000/svg"><rect y=".5" width="102" height="102" rx="51" fill="#39CB59"/><g clip-path="url(#a)"><path d="M51 29.06c-12.388 0-22.44 10.051-22.44 22.44 0 4.96 1.606 9.529 4.321 13.25l-2.859 8.459 8.916-2.781A22.39 22.39 0 0 0 51 73.939c12.388 0 22.44-10.051 22.44-22.44 0-12.388-10.052-22.44-22.44-22.44Zm10.274 34.475c-4.073 1.632-8.93.053-14.242-3.981-5.313-4.034-8.812-9.712-9.047-13.929-.235-4.216 3.198-6.344 5.065-6.331 1.867.013 3.916 5.979 3.942 6.893.027.926-2.284 2.571-2.375 3.354-.092.784 3.146 4.648 4.516 5.692 1.358 1.031 4.164 3.016 5.613 2.833 1.436-.196 2.39-3.081 3.303-3.264.914-.182 5.9 2.298 6.397 2.937.496.653.444 4.36-3.172 5.796Z" fill="#fff"/></g><defs><clipPath id="a"><path fill="#fff" transform="translate(28.56 29.06)" d="M0 0h44.88v44.88H0z"/></clipPath></defs></svg>
